T: Village, The
M: 3/4
L: 1/8
K: Dmaj
|: A>G |F>A d>c e>d | f>d A2 F2 | A>G E2 G2 | B>A F2 A>G |
F>A d>c e>d | f>d A2 F2 | A>G F>G E>C | D4 :|
|: F2 |A>G E2 c2 | e>d A2 F2 | A>G E2 C2 | D>F A2 F2 |
A>G E2 c2 | e>d A2 F2 | A>G F>G E>C | D4 :|
|: F>G |A2 G>F E>D | B2 A>G F>E | g2 f>e d>c | d>e f>g a2 |
(3ABA G>F E>D | (3BcB A>G F>E | (3gag f>e d>c | d2 D2 :|
</html>
